X:1
$SmallLMargin
$SmallRMargin
T: Aimé Gagnon
M: C|
L: 1/8
R: reel
K:G
DC|"G"B,DGA B2DC|B,DGA "G#dim"B2AG|"Am7"FGAB cAFA|"D"GABc "D7"d2DC|
"G"B,DGA B2DC|B,DGA "G#dim"B2AG|"Am7"FGAB cAFA|"D7"GBAF "G"G2:|
|:Bd|"G"gddg ddgd|Bcde "G#dim"dBAG| "Am7"FGAB cAFA|"D"GABc "D7"d2Bd|
"G"gddg ddgd|Bcde "G#dim"dBAG|["cont" "Am7"FGAB cAFA|"D7"GBAF "G"G2:|
|["Trans""Am7"FGAB "D7"cAFA|"G".G2z2z2AG|

